X: 895
T: Alfie Joe Denning's
R: reel
M: 4/4
K: Gmajor
dG~G2 ~G3e|dG~G2 egdB|dG~G2 dGBd|gedB AGAB|
dG~G2 ~G3e|dG~G2 egdB|dGBG DGBd|gedB ~A3B||
dg~g2 bg~g2|eg~g2 egdB|dg~g2 bg~g2|egdB AGAB|
dg~g2 bg~g2|egdg egdg|bdad gede|gedB ~A3B||

